contributed-vectors/mygovid.svg

<svg xmlns="http://www.w3.org/2000/svg" xml:space="preserve" id="svg" x="0" y="0" style="enable-background:new 0 0 192 192" version="1.1" viewBox="0 0 192 192"><style>.st1{fill:#98dc9a}.st2{fill:#fff}.st3{font-family:&quot;Now-Regular&quot;}.st4{font-size:31.3165px}</style><font horiz-adv-x="800"><font-face font-family="Now-Regular" underline-position="-100" underline-thickness="50" units-per-em="800"/><glyph d="M73 0h164c165 0 300 134 300 300S402 600 237 600H73m63-536v472h100c133 0 237-101 237-236S369 64 236 64z" horiz-adv-x="586" unicode="D"/><glyph d="M359 318v-60h241C581 142 481 56 360 56c-135 0-244 108-244 244s109 244 244 244c91 0 171-49 212-123l55 31c-52 93-152 156-267 156-171 0-308-138-308-308S189-8 360-8c170 0 308 138 308 308v18z" horiz-adv-x="719" unicode="G"/><glyph d="M78 0h64v600H78z" horiz-adv-x="219" unicode="I"/><glyph d="M456 408c-48 0-90-23-117-60-27 37-69 60-111 60-36 0-69-18-93-45v37H73V0h62v256c0 50 38 90 87 90 47 0 86-40 86-90V0h62v256c0 50 39 90 86 90 48 0 87-40 87-90V0h62v256c0 84-66 152-149 152z" horiz-adv-x="672" unicode="m"/><glyph d="M253-8c115 0 208 93 208 208s-93 208-208 208S45 315 45 200 138-8 253-8m0 62c-81 0-146 65-146 146s65 146 146 146c80 0 146-65 146-146S333 54 253 54z" horiz-adv-x="506" unicode="o"/><glyph d="M323 400 200 72 76 400H9L169 0h60l161 400z" horiz-adv-x="399" unicode="v"/><glyph d="M330 400 206 72 78 400H9L173-3 77-240h66l85 210 172 430z" horiz-adv-x="409" unicode="y"/></font><path id="template" d="M29.5 19.5h133c5.5 0 10 4.5 10 10v133c0 5.5-4.5 10-10 10h-133c-5.5 0-10-4.5-10-10v-133c0-5.5 4.5-10 10-10z" style="fill:#73ada4;enable-background:new"/><g id="icon"><path d="M141.7 97.7c-1.9-.4-3.2-1.8-4.6-3-1.1-.9-2.1-1.9-3.1-2.8-3.4-3.3-6.4-7-8.9-11-2.3-3.6-4.1-7.4-5.6-11.4-.7-1.7-1.3-3.5-1.7-5.3-.5-2-.8-4.1-1.2-6.1-.3-2.1-.7-4.2-.8-6.4-.1-2.9.1-5.8.2-8.7 0-1.2.2-2.4.3-3.6.1-.9.3-1.8.5-2.7.3-1.2.5-2.4.9-3.6.8-2.3 1.7-4.5 2.7-6.7.7-1.4 1.6-2.7 2.4-4 .3-.4.7-.8 1-1.2h3.5c.3.3.6.7.9 1 .9 1.5.7 2.9-.2 4.2-1.4 2-2.5 4.1-3.3 6.3-.5 1.4-.9 2.8-1.3 4.2-.3 1.3-.6 2.6-.8 3.9-.2.8-.3 1.7-.3 2.6 0 3.1-.1 6.2 0 9.3 0 1.2.3 2.3.5 3.4.4 2.1.7 4.1 1.2 6.2.3 1.3.7 2.5 1.2 3.8 1 2.5 2 5 3.2 7.4 1.7 3.3 3.7 6.5 6.2 9.3 1.3 1.5 2.6 3 4 4.4 1.6 1.5 3.3 2.8 4.9 4.2 1.7 1.4 2.1 3.3.8 5.1-.4.6-1.4.8-2.1 1.2h-.5z" class="st1"/><path d="M170.5 35.4c-.5-.7-1-1.5-1.6-2.2-2.2-2.8-4.9-4.9-8.3-6.1-3.2-1.1-6.4-1.5-9.7-.7-7.1 1.7-11.8 6.1-13.9 13.1-.5 1.8-.7 3.7-.9 5.6-.2 1.8-1.7 3-3.7 2.9-1.5-.1-2.8-1.8-2.6-3.4.3-2.1.5-4.3.9-6.3.6-2.5 1.6-4.9 3-7.1 1.9-3 4.2-5.4 7.1-7.3 1.3-.8 2.7-1.5 4-2.2.2-.1.3-.2.4-.3h18.3l.3.3c.8.4 1.6.7 2.3 1.1 1.5.9 2.9 1.9 4.3 2.9.1 3.1.1 6.4.1 9.7zM102.7 46.6c.1-.7.2-1.4.3-2.2.1-1.4.2-2.7.3-4.1.1-1.1.5-2.1 1.4-2.8.8-.6 1.8-.7 2.7-.3 1.1.4 1.8 1.4 1.9 2.6.1.7 0 1.5 0 2.2-.2 3-.5 6.1-.4 9.1 0 3 .4 6 .8 9 .3 2.5 1 5 1.4 7.6.2 1.3.2 2.5-.8 3.5-1.5 1.6-4.1.9-4.8-1.2-.5-1.6-.9-3.2-1.1-4.9-.4-2.5-.8-5-1.1-7.5-.2-1.3-.2-2.6-.3-4 0-.3-.1-.5-.1-.8-.2-2-.2-4.1-.2-6.2zM170.5 67.6c-3.1-1-5.6-2.7-7.6-5.2-1.3-1.6-1.2-3.8.3-5 1.3-1.1 2.9-1 4.1.2.8.8 1.6 1.5 2.4 2.3.2.2.6.3.8.5v7.2zM116.3 21.2l-3 6c-.6 1.3-1.5 2.1-2.9 2.2-1.5.1-3.2-1.3-3.2-3.1 0-1.4.6-2.5 1.1-3.7l.6-1.5c2.5.1 5 .1 7.4.1z" class="st1"/><path d="M142.6 49.5c.3-2 .4-4.5 1-6.9.9-3.6 3.2-6.2 6.6-7.6 6.1-2.5 12.4.4 14.8 6.6.8 2.1 1.1 4.3 1 6.5-.1 1.6-1.3 3-2.7 3.2-1.5.2-3-.6-3.5-2.2-.3-.8-.2-1.7-.3-2.5-.1-1.5-.5-2.8-1.4-4.1-1.7-2.3-5.2-2.2-7.2-.1-.9 1-1.3 2.2-1.5 3.5-.2 1.3-.3 2.5-.3 3.8.3 9.9 4.7 17.3 13.4 22.1 1 .6 1.9 1.1 2.4 2.3.4 1.2.1 2.6-.9 3.6-.9.9-2.4 1.2-3.5.6-7.6-3.8-13-9.6-15.9-17.6-.9-2.5-1.5-5.1-1.7-7.8 0-1-.1-2-.3-3.4z" class="st1"/><path d="M166.6 90.5c.2 1.8-1.7 3.9-4.6 3-5.7-1.7-10.9-4.3-15.5-8.1-5.6-4.6-10-10.3-12.8-17-1.1-2.6-1.9-5.3-2.8-8-.4-1.1-.6-2.3-.6-3.5-.1-1.9 1.5-3.4 3.4-3.3 1.2.1 2.4 1 2.8 2.2.4 1.5.7 3 1.1 4.5.9 3.3 2.3 6.5 4 9.4 3.1 5.3 7.2 9.6 12.3 12.9 3.1 2 6.5 3.5 10.1 4.5 1.5.4 2.7 1.7 2.6 3.4z" class="st1"/></g><text id="text" transform="translate(35.43 119.016)"><tspan x="0" y="0" class="st2 st3 st4">my</tspan><tspan x="0" y="30" class="st2 st3 st4">Gov</tspan><tspan x="63.6" y="30" class="st1 st3 st4">ID</tspan></text></svg>

<?xml version="1.0" encoding="utf-8"?>
<!-- Generator: Adobe Illustrator 26.0.0, SVG Export Plug-In . SVG Version: 6.00 Build 0)  -->
<svg version="1.1" id="svg" xmlns="http://www.w3.org/2000/svg" xmlns:xlink="http://www.w3.org/1999/xlink" x="0px" y="0px"
	 viewBox="0 0 192 192" style="enable-background:new 0 0 192 192;" xml:space="preserve">
<style type="text/css">
	.st0{fill:#73ADA4;enable-background:new    ;}
	.st1{fill:#98DC9A;}
	.st2{fill:#FFFFFF;}
	.st3{font-family:'Now-Regular';}
	.st4{font-size:31.3165px;}
</style>
<font horiz-adv-x="800">
<!-- \(c\)2015 Now Typeface is a trademark of Alfredo Marco Pradil. All rights reserved. -->
<!-- Copyright: Copyright 2021 Adobe System Incorporated. All rights reserved. -->
<font-face font-family="Now-Regular" units-per-em="800" underline-position="-100" underline-thickness="50"/>
<missing-glyph horiz-adv-x="483" d="M79,0l325,0l0,600l-325,0M127,48l0,504l229,0l0,-504z"/>
<glyph unicode="D" horiz-adv-x="586" d="M73,0l164,0C402,0 537,134 537,300C537,466 402,600 237,600l-164,0M136,64l0,472l100,0C369,536 473,435 473,300C473,165 369,64 236,64z"/>
<glyph unicode="G" horiz-adv-x="719" d="M359,318l0,-60l241,0C581,142 481,56 360,56C225,56 116,164 116,300C116,436 225,544 360,544C451,544 531,495 572,421l55,31C575,545 475,608 360,608C189,608 52,470 52,300C52,130 189,-8 360,-8C530,-8 668,130 668,300l0,18z"/>
<glyph unicode="I" horiz-adv-x="219" d="M78,0l64,0l0,600l-64,0z"/>
<glyph unicode="m" horiz-adv-x="672" d="M456,408C408,408 366,385 339,348C312,385 270,408 228,408C192,408 159,390 135,363l0,37l-62,0l0,-400l62,0l0,256C135,306 173,346 222,346C269,346 308,306 308,256l0,-256l62,0l0,256C370,306 409,346 456,346C504,346 543,306 543,256l0,-256l62,0l0,256C605,340 539,408 456,408z"/>
<glyph unicode="o" horiz-adv-x="506" d="M253,-8C368,-8 461,85 461,200C461,315 368,408 253,408C138,408 45,315 45,200C45,85 138,-8 253,-8M253,54C172,54 107,119 107,200C107,281 172,346 253,346C333,346 399,281 399,200C399,119 333,54 253,54z"/>
<glyph unicode="v" horiz-adv-x="399" d="M323,400l-123,-328l-124,328l-67,0l160,-400l60,0l161,400z"/>
<glyph unicode="y" horiz-adv-x="409" d="M330,400l-124,-328l-128,328l-69,0l164,-403l-96,-237l66,0l85,210l172,430z"/>
</font>

	<g id="template">
	<path class="st0" d="M29.5,19.5h133c5.5,0,10,4.5,10,10v133c0,5.5-4.5,10-10,10h-133c-5.5,0-10-4.5-10-10v-133
		C19.5,24,24,19.5,29.5,19.5z"/>
</g>
<g id="icon">
	<path class="st1" d="M141.7,97.7c-1.9-0.4-3.2-1.8-4.6-3c-1.1-0.9-2.1-1.9-3.1-2.8c-3.4-3.3-6.4-7-8.9-11
		c-2.3-3.6-4.1-7.4-5.6-11.4c-0.7-1.7-1.3-3.5-1.7-5.3c-0.5-2-0.8-4.1-1.2-6.1c-0.3-2.1-0.7-4.2-0.8-6.4c-0.1-2.9,0.1-5.8,0.2-8.7
		c0-1.2,0.2-2.4,0.3-3.6c0.1-0.9,0.3-1.8,0.5-2.7c0.3-1.2,0.5-2.4,0.9-3.6c0.8-2.3,1.7-4.5,2.7-6.7c0.7-1.4,1.6-2.7,2.4-4
		c0.3-0.4,0.7-0.8,1-1.2c1.2,0,2.4,0,3.5,0c0.3,0.3,0.6,0.7,0.9,1c0.9,1.5,0.7,2.9-0.2,4.2c-1.4,2-2.5,4.1-3.3,6.3
		c-0.5,1.4-0.9,2.8-1.3,4.2c-0.3,1.3-0.6,2.6-0.8,3.9c-0.2,0.8-0.3,1.7-0.3,2.6c0,3.1-0.1,6.2,0,9.3c0,1.2,0.3,2.3,0.5,3.4
		c0.4,2.1,0.7,4.1,1.2,6.2c0.3,1.3,0.7,2.5,1.2,3.8c1,2.5,2,5,3.2,7.4c1.7,3.3,3.7,6.5,6.2,9.3c1.3,1.5,2.6,3,4,4.4
		c1.6,1.5,3.3,2.8,4.9,4.2c1.7,1.4,2.1,3.3,0.8,5.1c-0.4,0.6-1.4,0.8-2.1,1.2C142.1,97.7,141.9,97.7,141.7,97.7z"/>
	<path class="st1" d="M170.5,35.4c-0.5-0.7-1-1.5-1.6-2.2c-2.2-2.8-4.9-4.9-8.3-6.1c-3.2-1.1-6.4-1.5-9.7-0.7
		c-7.1,1.7-11.8,6.1-13.9,13.1c-0.5,1.8-0.7,3.7-0.9,5.6c-0.2,1.8-1.7,3-3.7,2.9c-1.5-0.1-2.8-1.8-2.6-3.4c0.3-2.1,0.5-4.3,0.9-6.3
		c0.6-2.5,1.6-4.9,3-7.1c1.9-3,4.2-5.4,7.1-7.3c1.3-0.8,2.7-1.5,4-2.2c0.2-0.1,0.3-0.2,0.4-0.3c6.1,0,12.2,0,18.3,0
		c0.1,0.1,0.2,0.2,0.3,0.3c0.8,0.4,1.6,0.7,2.3,1.1c1.5,0.9,2.9,1.9,4.3,2.9C170.5,28.8,170.5,32.1,170.5,35.4z"/>
	<path class="st1" d="M102.7,46.6c0.1-0.7,0.2-1.4,0.3-2.2c0.1-1.4,0.2-2.7,0.3-4.1c0.1-1.1,0.5-2.1,1.4-2.8
		c0.8-0.6,1.8-0.7,2.7-0.3c1.1,0.4,1.8,1.4,1.9,2.6c0.1,0.7,0,1.5,0,2.2c-0.2,3-0.5,6.1-0.4,9.1c0,3,0.4,6,0.8,9
		c0.3,2.5,1,5,1.4,7.6c0.2,1.3,0.2,2.5-0.8,3.5c-1.5,1.6-4.1,0.9-4.8-1.2c-0.5-1.6-0.9-3.2-1.1-4.9c-0.4-2.5-0.8-5-1.1-7.5
		c-0.2-1.3-0.2-2.6-0.3-4c0-0.3-0.1-0.5-0.1-0.8C102.7,50.8,102.7,48.7,102.7,46.6z"/>
	<path class="st1" d="M170.5,67.6c-3.1-1-5.6-2.7-7.6-5.2c-1.3-1.6-1.2-3.8,0.3-5c1.3-1.1,2.9-1,4.1,0.2c0.8,0.8,1.6,1.5,2.4,2.3
		c0.2,0.2,0.6,0.3,0.8,0.5C170.5,62.8,170.5,65.2,170.5,67.6z"/>
	<path class="st1" d="M116.3,21.2c-1,2-2,4-3,6c-0.6,1.3-1.5,2.1-2.9,2.2c-1.5,0.1-3.2-1.3-3.2-3.1c0-1.4,0.6-2.5,1.1-3.7
		c0.2-0.5,0.4-1,0.6-1.5C111.4,21.2,113.9,21.2,116.3,21.2z"/>
	<path class="st1" d="M142.6,49.5c0.3-2,0.4-4.5,1-6.9c0.9-3.6,3.2-6.2,6.6-7.6c6.1-2.5,12.4,0.4,14.8,6.6c0.8,2.1,1.1,4.3,1,6.5
		c-0.1,1.6-1.3,3-2.7,3.2c-1.5,0.2-3-0.6-3.5-2.2c-0.3-0.8-0.2-1.7-0.3-2.5c-0.1-1.5-0.5-2.8-1.4-4.1c-1.7-2.3-5.2-2.2-7.2-0.1
		c-0.9,1-1.3,2.2-1.5,3.5c-0.2,1.3-0.3,2.5-0.3,3.8c0.3,9.9,4.7,17.3,13.4,22.1c1,0.6,1.9,1.1,2.4,2.3c0.4,1.2,0.1,2.6-0.9,3.6
		c-0.9,0.9-2.4,1.2-3.5,0.6c-7.6-3.8-13-9.6-15.9-17.6c-0.9-2.5-1.5-5.1-1.7-7.8C142.9,51.9,142.8,50.9,142.6,49.5z"/>
	<path class="st1" d="M166.6,90.5c0.2,1.8-1.7,3.9-4.6,3c-5.7-1.7-10.9-4.3-15.5-8.1c-5.6-4.6-10-10.3-12.8-17
		c-1.1-2.6-1.9-5.3-2.8-8c-0.4-1.1-0.6-2.3-0.6-3.5c-0.1-1.9,1.5-3.4,3.4-3.3c1.2,0.1,2.4,1,2.8,2.2c0.4,1.5,0.7,3,1.1,4.5
		c0.9,3.3,2.3,6.5,4,9.4c3.1,5.3,7.2,9.6,12.3,12.9c3.1,2,6.5,3.5,10.1,4.5C165.5,87.5,166.7,88.8,166.6,90.5z"/>
</g>
<text id="text" transform="matrix(1 0 0 1 35.4292 119.0156)"><tspan x="0" y="0" class="st2 st3 st4">my</tspan><tspan x="0" y="30" class="st2 st3 st4">Gov</tspan><tspan x="63.6" y="30" class="st1 st3 st4">ID</tspan></text>
</svg>
